!!!COM: Damdinsuren, Bilegiin
!!!CDT: 1919-1991
!!!OTL: National Anthem, Mongolia
!!!ENC: Davis, Matthew J.
!!Vocal Line Only
**kern
*clefG2
*k[b-e-a-d-]
*A-:
*M4/4
=1-
1r
==
4e-
8.e-
16f
8.a-
16b-
8.a-
16f
=3
8.e-
16f
8.e-
16c
4e-
4e-
=4
4e-
8.a-
16b-
8.cc
16ee-
8.cc
16a-
=5
4b-
8.b-
16e-
2a-
=6
4a-
8.a-
16b-
4cc
4ee-
=7
8ff
8ee-
8.cc
16a-
2b-
=8
8cc
8ee-
8cc
8b-
8.a-
16b-
8a-
8f
=9
4e-
8.e-
16f
2a-
==10
!Chorus
4.ff
8ee-
4cc
8cc
8ee-
=11
8b-
8b-
8a-
8b-
2cc
=12
4.ee-
8ff
8ee-
8cc
8b-
8a-
=13
4b-
8f
8a-
2b-
=14
4a-
8.e-
16f
4a-
4b-
=15
4cc
8cc
8b-
8cc
8cc
8ee-
=16
8ff
8aa-
8ff
8ee-
8cc
8cc
8ee-
8ee-
17
[2aa-
8aa-]
8r
4r
==|!
*-
